X: 30932
T: Over The Moor To Peggy
R: reel
M: 4/4
K: Gmajor
d2BG dG~G2|DGBd c2Bc|dcBG DGBd|cBAB c2ge|
d2BG DG~G2|DGBd cABc|d2BG DG~G2|cBAB c4||
dg~g2 dgeg|dggd c2Bc|dg~g2 defd|cBAB c2Bc|
dg~g2 dgeg|dggd c2Bc|dg~g2 bgag|fdef g4||

